packages/kaspersky-hexa-ui-icons/src/iconsSVGs/16x12/FlagGe.svg

<svg width="16" height="12" viewBox="0 0 16 12" fill="none" xmlns="http://www.w3.org/2000/svg">
<g clip-path="url(#clip0_41916_355)">
<rect width="16" height="12" rx="1.18633" fill="white"/>
<rect x="0.148291" y="0.148291" width="15.7034" height="11.7034" rx="1.03804" fill="white" stroke="#F5F5F5" stroke-width="0.296583"/>
<rect x="6.87085" width="2.25829" height="12" fill="#FF0000"/>
<rect x="16" y="4.87085" width="2.25829" height="16" transform="rotate(90 16 4.87085)" fill="#FF0000"/>
<path d="M3.63721 2.0238C3.60873 2.19378 3.58987 2.36498 3.57959 2.5365C3.75143 2.52624 3.92297 2.50839 4.09326 2.47986L4.45068 2.41931C4.38676 2.68721 4.3868 2.96683 4.45068 3.23474L4.09326 3.17517C3.92295 3.14664 3.75145 3.12782 3.57959 3.11755C3.58986 3.28928 3.6087 3.46105 3.63721 3.63123L3.69775 3.98865C3.4298 3.92471 3.15028 3.92472 2.88232 3.98865L2.94189 3.63123C2.9704 3.46107 2.98827 3.28925 2.99854 3.11755C2.82731 3.12783 2.6565 3.14676 2.48682 3.17517L2.12842 3.23474C2.19233 2.9668 2.19235 2.68725 2.12842 2.41931L2.48682 2.47986C2.65647 2.50826 2.82735 2.52622 2.99854 2.5365C2.98826 2.36501 2.97037 2.19375 2.94189 2.0238L2.88232 1.66638C3.15026 1.73029 3.42982 1.73031 3.69775 1.66638L3.63721 2.0238Z" fill="#FF0000"/>
<path d="M13.0581 2.0238C13.0296 2.19377 13.0108 2.36499 13.0005 2.5365C13.172 2.52624 13.3432 2.50832 13.5132 2.47986L13.8716 2.41931C13.8077 2.68725 13.8077 2.9668 13.8716 3.23474L13.5132 3.17517C13.3432 3.14671 13.172 3.12781 13.0005 3.11755C13.0108 3.28927 13.0296 3.46106 13.0581 3.63123L13.1177 3.98865C12.8497 3.92471 12.5702 3.92471 12.3022 3.98865L12.3628 3.63123C12.3913 3.46106 12.4092 3.28926 12.4194 3.11755C12.2479 3.12783 12.0767 3.14669 11.9067 3.17517L11.5493 3.23474C11.6132 2.96683 11.6132 2.68721 11.5493 2.41931L11.9067 2.47986C12.0767 2.50833 12.2479 2.52622 12.4194 2.5365C12.4092 2.365 12.3913 2.19376 12.3628 2.0238L12.3022 1.66638C12.5702 1.73031 12.8497 1.7303 13.1177 1.66638L13.0581 2.0238Z" fill="#FF0000"/>
<path d="M3.63721 8.36874C3.60875 8.53863 3.58987 8.71001 3.57959 8.88144C3.75143 8.87118 3.92297 8.85333 4.09326 8.8248L4.45068 8.76523C4.38686 9.03295 4.38689 9.31196 4.45068 9.57968L4.09326 9.52011C3.92295 9.49158 3.75145 9.47275 3.57959 9.46249C3.58985 9.63431 3.60868 9.80589 3.63721 9.97617L3.69775 10.3336C3.42982 10.2697 3.15027 10.2697 2.88232 10.3336L2.94189 9.97617C2.97041 9.80592 2.98827 9.63428 2.99854 9.46249C2.82732 9.47277 2.65649 9.4917 2.48682 9.52011L2.12842 9.57968C2.19225 9.31189 2.19228 9.03302 2.12842 8.76523L2.48682 8.8248C2.65648 8.8532 2.82734 8.87116 2.99854 8.88144C2.98825 8.71004 2.97035 8.5386 2.94189 8.36874L2.88232 8.01132C3.15028 8.07524 3.4298 8.07526 3.69775 8.01132L3.63721 8.36874Z" fill="#FF0000"/>
<path d="M13.0581 8.36874C13.0296 8.53862 13.0108 8.71002 13.0005 8.88144C13.172 8.87118 13.3432 8.85326 13.5132 8.8248L13.8716 8.76523C13.8077 9.03302 13.8077 9.31189 13.8716 9.57968L13.5132 9.52011C13.3432 9.49165 13.172 9.47275 13.0005 9.46249C13.0108 9.6343 13.0296 9.80591 13.0581 9.97617L13.1177 10.3336C12.8497 10.2697 12.5702 10.2697 12.3022 10.3336L12.3628 9.97617C12.3913 9.80591 12.4092 9.6343 12.4194 9.46249C12.2479 9.47277 12.0767 9.49163 11.9067 9.52011L11.5493 9.57968C11.6131 9.31196 11.6131 9.03294 11.5493 8.76523L11.9067 8.8248C12.0767 8.85327 12.2479 8.87116 12.4194 8.88144C12.4092 8.71003 12.3913 8.53861 12.3628 8.36874L12.3022 8.01132C12.5702 8.07526 12.8497 8.07525 13.1177 8.01132L13.0581 8.36874Z" fill="#FF0000"/>
</g>
<defs>
<clipPath id="clip0_41916_355">
<rect width="16" height="12" rx="1.18633" fill="white"/>
</clipPath>
</defs>
</svg>

<svg xmlns="http://www.w3.org/2000/svg" width="16" height="12" fill="none" viewBox="0 0 16 12"><g clip-path="url(#a)"><rect width="16" height="12" fill="#fff" rx="1"/><rect width="16" height="12" fill="#fff" rx="1"/><path fill="red" d="M6.8708 0h2.2583v12H6.8708z"/><path fill="red" d="M16 4.871v2.258H0V4.871zM3.637 2.024a4.9 4.9 0 0 0-.058.513 4.9 4.9 0 0 0 .514-.057l.357-.061a1.76 1.76 0 0 0 0 .815l-.357-.059a4.9 4.9 0 0 0-.514-.058c.01.172.029.344.058.514l.061.357a1.76 1.76 0 0 0-.815 0l.06-.357A4.9 4.9 0 0 0 3 3.117a4.9 4.9 0 0 0-.512.058l-.358.06c.064-.268.064-.547 0-.815l.358.061c.17.028.341.046.512.057a4.9 4.9 0 0 0-.057-.513l-.06-.357c.268.064.548.064.816 0zm9.421 0a4.9 4.9 0 0 0-.058.513 4.9 4.9 0 0 0 .513-.057l.358-.061a1.76 1.76 0 0 0 0 .815l-.358-.059A4.9 4.9 0 0 0 13 3.117a4.9 4.9 0 0 0 .058.514l.06.357a1.76 1.76 0 0 0-.815 0l.061-.357a4.9 4.9 0 0 0 .057-.514 4.9 4.9 0 0 0-.513.058l-.357.06a1.76 1.76 0 0 0 0-.815l.357.061c.17.028.341.046.513.057a4.8 4.8 0 0 0-.057-.513l-.061-.357c.268.064.548.064.816 0zM3.637 8.369a4.9 4.9 0 0 0-.058.513 4.9 4.9 0 0 0 .514-.057l.357-.06a1.76 1.76 0 0 0 0 .815l-.357-.06a4.9 4.9 0 0 0-.514-.058c.01.172.029.343.058.514l.061.357a1.76 1.76 0 0 0-.815 0l.06-.357A4.9 4.9 0 0 0 3 9.462a4.9 4.9 0 0 0-.512.058l-.358.06a1.756 1.756 0 0 0 0-.814l.358.06c.17.028.341.046.512.057a4.9 4.9 0 0 0-.057-.513l-.06-.357c.268.064.548.064.816 0zm9.421 0a4.9 4.9 0 0 0-.058.513 4.9 4.9 0 0 0 .513-.057l.358-.06a1.754 1.754 0 0 0 0 .815l-.358-.06A4.9 4.9 0 0 0 13 9.462a4.9 4.9 0 0 0 .058.514l.06.357a1.76 1.76 0 0 0-.815 0l.061-.357a4.9 4.9 0 0 0 .057-.514 4.9 4.9 0 0 0-.513.058l-.357.06a1.76 1.76 0 0 0 0-.814l.357.06c.17.029.341.046.513.057a4.8 4.8 0 0 0-.057-.513l-.061-.357c.268.064.548.064.816 0z"/></g><defs><clipPath id="a"><rect width="16" height="12" fill="#fff" rx="1"/></clipPath></defs></svg>
